X:1
T:Bill Martin and Ella Speed
M:2/4
L:1/8
K:A
 E| F F2 F| F F/2F/2 FF| G G2 F| F3 E| E4|E-C FC| F F2 E| _E3 =E,/2 E,/2|\
 E3 B,| D3 C| A,3| A,3||
